packages/core/src/svgs/tokens/mono/ATLAS.svg

<svg width="24" height="24" viewBox="0 0 24 24" fill="none" xmlns="http://www.w3.org/2000/svg">
<path d="M11.9994 8.28576L7.94215 17.4687C7.81072 17.7602 7.73644 18.0002 7.44502 18.0002H4.75927C4.37642 18.0002 4.16499 17.8915 4.35927 17.4687L10.9079 2.43428C11.0394 2.18285 11.1251 2 11.4222 2H12.5822C12.8736 2 12.9536 2.18285 13.0964 2.43428L19.6452 17.463C19.8337 17.8915 19.6165 18.0002 19.2337 18.0002H16.5537C16.2622 18.0002 16.1822 17.7602 16.0565 17.4687L11.9994 8.28005V8.28576Z" fill="white"/>
<path d="M12.005 21.9999L9.32495 16.8569H14.5936L12.005 21.9999Z" fill="white"/>
</svg>

<svg xmlns="http://www.w3.org/2000/svg" width="24" height="24" fill="none" viewBox="0 0 24 24">
    <path fill="#fff" d="m12 8.286-4.058 9.183c-.131.291-.206.531-.497.531H4.759c-.383 0-.594-.108-.4-.531l6.549-15.035c.131-.251.217-.434.514-.434h1.16c.292 0 .372.183.514.434l6.55 15.029c.188.428-.03.537-.412.537h-2.68c-.292 0-.372-.24-.497-.531L11.999 8.28z"/>
    <path fill="#fff" d="m12.005 22-2.68-5.143h5.269z"/>
</svg>
